X:301
T:Steirer (99.)
C:traditionell
A:Salzkammergut
S:MIDI erhalten von Christian Amon. Nach einer kopie im besitz von Johann Stoeckl eines manuscriptes. Stoeckl(zitiert von Amon): "diese sammlung wurde 1935 im hause der familie Hohenlohe-Schillingfuerst gefunden. Sie wurde von einem der beiden brueder Steinegger 1866 verfasst. Die originale sind im Ausseer Kammerhofmuseum".
M:3/4
L:1/8
K:G
V:1
BA GB AG | Fz dz F2 | dz Fz dz | Gz Bz G2 |\
BA GB AG | Fz dz F2 | dz Fd dF | G4 z2 |*
V:2
dc Bd cB | Az fz A2 | fz Az fA | Bz dc B2 |\
dc Bd cB | Az fz A2 | fd Af dA | B4 z2 |*
